src/static/provided/logos/peer5.svg

<svg width="256px" height="291px" viewBox="0 0 256 291" xmlns="http://www.w3.org/2000/svg"><title>Group</title><g fill="none" fill-rule="evenodd"><path fill="#e44d26" d="M0 1e-4l23.297 261.31 104.546 29.022 104.835-29.064L256 1e-4z"/><path fill="#ef6429" d="M127.9999 268.1172l84.712-23.485 19.93-223.266h-104.642z"/><path fill="#ebebeb" d="M80.7977 84.4258h47.202l1.001-1.364v-28.557l-1.001-2.093h-80.519l13.339 179.956 31.043 9.216-5.092-78.336h41.229l1.001-1.425v-28.467l-1.001-2.122h-44.322z"/><path fill="#fefefe" d="M127.9999 52.4122h75.184l-8.003 110.835h-67.181v-32.013h36.652l3.366-46.808h-40.018z"/></g></svg>

<svg width="256" height="291" xmlns="http://www.w3.org/2000/svg"><g fill="none" fill-rule="evenodd"><path fill="#E44D26" d="M0 0l23.297 261.31 104.546 29.022 104.835-29.064L256 0z"/><path fill="#EF6429" d="M128 268.117l84.712-23.485 19.93-223.266H128z"/><path fill="#EBEBEB" d="M80.798 84.426H128l1-1.364V54.505l-1-2.093H47.48l13.34 179.956 31.043 9.216-5.092-78.336H128l1-1.425v-28.467l-1-2.122H83.678z"/><path fill="#FEFEFE" d="M128 52.412h75.184l-8.003 110.835H128v-32.013h36.652l3.366-46.808H128z"/></g></svg>
